X: 115202
T: MISS MENZIES OF CULDARE
Q: "Reel."
R:  Reel.
%R: reel
B: James Kerr "Merry Melodies" v.1 p.15 s.2 #2
Z: 2017 John Chambers <jc:trillian.mit.edu>
M: C
L: 1/8
K: A
ue |\
a2ae (fe)ce | a2ae (fB)Bg |\
a2ae (fe)ce | faec eA A ::\
uB |\
A/A/A (ec) acec | A/A/A (ec) fBBa |\
A/A/A (ec) acec | faec eA A :|

%%sep 1 1 500
%%sep 1 1 500

